usr/share/icons/biglinux-icons-material/24/actions/mail-mark-junk.svg

<svg xmlns="http://www.w3.org/2000/svg" viewBox="0 0 24 24">
  <defs id="defs3051">
    <style type="text/css" id="current-color-scheme">
      .ColorScheme-Text {
        color:#dedede;
      }
      .ColorScheme-NegativeText {
        color:#da4453;
      }
      </style>
  </defs>
  <path 
     style="fill:currentColor;fill-opacity:1;stroke:none" 
     d="M 2 4 L 2 5 L 2 13 L 2 19 L 2 19.414062 L 2 20 L 3 20 L 9 20 L 15 20 L 15 19 L 9 19 L 3 19 L 3 18.414062 L 3.4628906 17.951172 L 9.7304688 11.683594 L 11.183594 13.134766 L 11.998047 13.949219 L 12 13.949219 L 12.816406 13.134766 L 14.269531 11.683594 L 15.585938 13 L 17 13 L 14.976562 10.976562 L 20.728516 5.2226562 L 20.951172 5 L 21 5 L 21 5.2226562 L 21 13 L 22 13 L 22 4 L 21.951172 4 L 21 4 L 20.537109 4 L 3.4628906 4 L 3 4 L 2 4 z M 3 5 L 3.0488281 5 L 3.2714844 5.2226562 L 9.0234375 10.976562 L 3 17 L 3 13 L 3 5.2226562 L 3 5 z M 4.4628906 5 L 19.537109 5 L 12 12.537109 L 4.4628906 5 z "
     class="ColorScheme-Text"/>
  <path
     style="fill:currentColor;fill-opacity:1;stroke:none" 
     d="M 19 14 C 17.338005 14 16 15.338005 16 17 C 16 18.661995 17.338005 20 19 20 C 20.661995 20 22 18.661995 22 17 C 22 15.338005 20.661995 14 19 14 z M 19 15 C 19.371625 15 19.714197 15.106065 20.011719 15.28125 L 17.28125 18.011719 C 17.106065 17.714197 17 17.371625 17 17 C 17 15.892003 17.892003 15 19 15 z M 20.71875 15.988281 C 20.893935 16.285803 21 16.628375 21 17 C 21 18.107997 20.107997 19 19 19 C 18.628375 19 18.285803 18.893935 17.988281 18.71875 L 20.71875 15.988281 z "
     class="ColorScheme-NegativeText"
     />
</svg>

<svg xmlns="http://www.w3.org/2000/svg" viewBox="0 0 24 24"><path d="M2 4v16h13v-1H3v-.586l.463-.463 6.267-6.267 1.454 1.45.814.815H12l.816-.814 1.454-1.451L15.586 13H17l-2.023-2.023 5.752-5.754L20.95 5H21v8h1V4H2zm1 1h.049l.222.223 5.752 5.754L3 17V5zm1.463 0h15.074L12 12.537 4.463 5z" style="fill:currentColor;fill-opacity:1;stroke:none;color:#dedede"/><path d="M19 14c-1.662 0-3 1.338-3 3s1.338 3 3 3 3-1.338 3-3-1.338-3-3-3zm0 1c.372 0 .714.106 1.012.281l-2.73 2.73A1.983 1.983 0 0 1 17 17c0-1.108.892-2 2-2zm1.719.988A1.996 1.996 0 0 1 19 19c-.372 0-.714-.106-1.012-.281l2.73-2.73z" style="fill:currentColor;fill-opacity:1;stroke:none;color:#da4453"/></svg>
